btlcenter/img/icon_disco-ball.svg

<svg fill="none" height="50" viewBox="0 0 50 50" width="50" xmlns="http://www.w3.org/2000/svg" xmlns:xlink="http://www.w3.org/1999/xlink"><clipPath id="a"><path d="m0 0h50v50h-50z"/></clipPath><g clip-path="url(#a)" fill="#000"><path d="m46.069 27.5936c-.0313-.5382-.4925-.9483-1.0319-.9174-.5387.0313-.9495.4936-.9178 1.0319.0072.1232.0114.2475.0164.3715-2.8706.6607-5.7755 1.1707-8.6995 1.5297.0161-2.7382-.151-5.5111-.5027-8.2855-.0073-.0572-.0145-.1141-.0222-.1713 2.3587-.312 4.7024-.7366 7.0214-1.2692.1423.2686.2788.541.4089.8175.2297.4883.811.6977 1.2993.4689.4883-.2293.6981-.8107.4688-1.2989-1.6838-3.5847-4.3346-6.6208-7.6656-8.7796-2.0851-1.35113-4.3755-2.3132-6.7734-2.85946-.3036-1.97526-1.8181-3.55683-3.7594-3.96042v-3.294758c0-.539398-.4371-.976562-.9765-.976562s-.9766.437164-.9766.976562v3.294758c-1.9447.40435-3.4611 1.99051-3.7609 3.9711-2.3655.54435-4.6261 1.49383-6.6868 2.82288-2.8377 1.8299-5.18492 4.2972-6.86453 7.1983-.00077.0016-.00153.0031-.00267.0046-.28496.4932-.55161.9983-.79766 1.5156-1.35155 2.8442-2.03705 5.8952-2.03705 9.0675 0 5.6492 2.19994 10.96 6.19431 14.9544 3.9948 3.9947 9.3052 6.1943 14.954 6.1943 5.6492 0 10.96-2.1999 14.9544-6.1943 3.9947-3.9948 6.1943-9.3056 6.1943-14.9544 0-.4181-.0122-.8411-.0366-1.2577zm-1.9574 2.4964c-.1846 2.8835-1.0078 5.5953-2.3307 7.9956-2.3842.5573-4.7963.9952-7.2243 1.3111.3334-1.8719.5733-3.7762.7175-5.7057.0519-.6977.0908-1.3988.1179-2.1026 2.9293-.3525 5.8411-.8519 8.7196-1.4984zm-18.1781 17.9321v-6.0475c2.0599-.0263 4.1187-.1384 6.1695-.3326-.4212 1.8379-.9556 3.709-1.6247 5.5943-1.4507.4364-2.9728.7068-4.5448.7858zm-6.4976-.7858c-.6691-1.8853-1.2039-3.7568-1.6247-5.5943 2.0508.1942 4.1096.3059 6.1691.3326v6.0475c-1.5716-.079-3.0937-.3494-4.5444-.7858zm-13.63336-17.1463c2.87857.6465 5.79036 1.1459 8.71926 1.4984.0275.7038.0664 1.4049.1182 2.1026.1439 1.9295.3842 3.8338.7176 5.7057-2.4284-.3159-4.8401-.7538-7.22428-1.3111-1.32294-2.4003-2.14615-5.1121-2.33078-7.9956zm10.69226 1.7116c2.4879.2422 4.9861.3784 7.4855.4067v7.8037c-2.2003-.0286-4.3991-.1545-6.588-.3781-.5134-2.7267-.7881-5.36-.8975-7.8323zm.4158-10.1715c.0103-.0828.0209-.1648.0316-.2468 2.338.2487 4.6875.3891 7.0381.4192v8.4416c-2.5177-.0286-5.0342-.1675-7.5401-.4166-.0328-3.0838.1774-5.8659.4704-8.1974zm6.3125-11.89461c.2522-.02251.5047-.04044.7572-.05341v10.15782c-2.256-.0294-4.5108-.1614-6.755-.396.7572-4.6665 1.8379-7.9475 2.1968-8.963 1.2299-.3735 2.5025-.62601 3.801-.74541zm3.0903-.0309c.1244.00839.248.01907.3719.03014 1.3008.11863 2.5753.37117 3.8063.74467.3586 1.0116 1.4389 4.2858 2.1973 8.9645-2.2442.2346-4.4991.3666-6.7554.396v-10.15744c.127.00649.2536.01297.3799.02213zm-.3799 30.30741v-7.8037c2.4997-.0283 4.998-.1645 7.4859-.4067-.1095 2.4731-.3841 5.106-.8976 7.8323-2.1889.2236-4.388.3495-6.5883.3781zm7.0625-18.4426c.2972 2.3472.5112 5.1506.4776 8.2581-2.5055.2491-5.0221.388-7.5401.4166v-8.4416c2.351-.0301 4.7004-.1709 7.0385-.4192.008.0618.016.1236.024.1861zm7.8766-3.4492c-2.0634.4547-4.1466.8202-6.2416 1.0952-.5547-3.4618-1.2776-6.1726-1.7926-7.8537 3.2219 1.4572 6.0223 3.788 8.0342 6.7585zm-15.9378-11.99609c1.1745 0 2.1846.71717 2.6157 1.73684-1.3565-.16556-2.7279-.20027-4.0913-.10491-.3818.02671-.7633.06333-1.1428.11063.4291-1.02272 1.4412-1.74256 2.6184-1.74256zm-7.8598 5.23989c-.515 1.6811-1.2375 4.3911-1.7918 7.8514-2.095-.275-4.1779-.6405-6.24122-1.0952 2.01152-2.9682 4.81262-5.2986 8.03302-6.7562zm-9.46544 9.2583c.11864-.2499.24338-.496.37193-.739 2.31891.5326 4.66271.9572 7.02131 1.2692-.0076.0572-.0149.1141-.0221.1713-.3517 2.7744-.5188 5.5473-.5028 8.2855-2.9239-.359-5.82884-.869-8.69978-1.5301.10147-2.6027.71526-5.1082 1.83144-7.4569zm2.03972 19.7971c2.02142.4162 4.06002.75 6.10852 1.0002.3639 1.6758.8037 3.3226 1.3198 4.9347-2.9457-1.3313-5.4973-3.3859-7.42832-5.9349zm23.18722 5.9349c.5162-1.6121.956-3.2589 1.3199-4.9347 2.0485-.2502 4.0871-.584 6.1085-1.0002-1.931 2.549-4.4827 4.6036-7.4284 5.9349z"/><path d="m43.9941 23.0863c-.3407.2231-.5032.6561-.4048 1.049.0977.3895.4361.6874.8351.7328.4062.0462.8056-.172.9868-.5382.1782-.3609.1118-.8053-.1625-1.0994-.3219-.3449-.8632-.4048-1.2546-.1442z"/></g></svg>

<svg width="50" height="50" viewBox="0 0 50 50" fill="none" xmlns="http://www.w3.org/2000/svg">
<g clip-path="url(#clip0)">
<path d="M46.069 27.5936C46.0377 27.0554 45.5765 26.6453 45.0371 26.6762C44.4984 26.7075 44.0876 27.1698 44.1193 27.7081C44.1265 27.8313 44.1307 27.9556 44.1357 28.0796C41.2651 28.7403 38.3602 29.2503 35.4362 29.6093C35.4523 26.8711 35.2852 24.0982 34.9335 21.3238C34.9262 21.2666 34.919 21.2097 34.9113 21.1525C37.27 20.8405 39.6137 20.4159 41.9327 19.8833C42.075 20.1519 42.2115 20.4243 42.3416 20.7008C42.5713 21.1891 43.1526 21.3985 43.6409 21.1697C44.1292 20.9404 44.339 20.359 44.1097 19.8708C42.4259 16.2861 39.7751 13.25 36.4441 11.0912C34.359 9.74007 32.0686 8.778 29.6707 8.23174C29.3671 6.25648 27.8526 4.67491 25.9113 4.27132V0.976562C25.9113 0.437164 25.4742 0 24.9348 0C24.3954 0 23.9582 0.437164 23.9582 0.976562V4.27132C22.0135 4.67567 20.4971 6.26183 20.1973 8.24242C17.8318 8.78677 15.5712 9.73625 13.5105 11.0653C10.6728 12.8952 8.32558 15.3625 6.64597 18.2636C6.6452 18.2652 6.64444 18.2667 6.6433 18.2682C6.35834 18.7614 6.09169 19.2665 5.84564 19.7838C4.49409 22.628 3.80859 25.679 3.80859 28.8513C3.80859 34.5005 6.00853 39.8113 10.0029 43.8057C13.9977 47.8004 19.3081 50 24.9569 50C30.6061 50 35.9169 47.8001 39.9113 43.8057C43.906 39.8109 46.1056 34.5001 46.1056 28.8513C46.1056 28.4332 46.0934 28.0102 46.069 27.5936ZM44.1116 30.09C43.927 32.9735 43.1038 35.6853 41.7809 38.0856C39.3967 38.6429 36.9846 39.0808 34.5566 39.3967C34.89 37.5248 35.1299 35.6205 35.2741 33.691C35.326 32.9933 35.3649 32.2922 35.392 31.5884C38.3213 31.2359 41.2331 30.7365 44.1116 30.09ZM25.9335 48.0221V41.9746C27.9934 41.9483 30.0522 41.8362 32.103 41.642C31.6818 43.4799 31.1474 45.351 30.4783 47.2363C29.0276 47.6727 27.5055 47.9431 25.9335 48.0221ZM19.4359 47.2363C18.7668 45.351 18.232 43.4795 17.8112 41.642C19.862 41.8362 21.9208 41.9479 23.9803 41.9746V48.0221C22.4087 47.9431 20.8866 47.6727 19.4359 47.2363ZM5.80254 30.09C8.68111 30.7365 11.5929 31.2359 14.5218 31.5884C14.5493 32.2922 14.5882 32.9933 14.64 33.691C14.7839 35.6205 15.0242 37.5248 15.3576 39.3967C12.9292 39.0808 10.5175 38.6429 8.13332 38.0856C6.81038 35.6853 5.98717 32.9735 5.80254 30.09ZM16.4948 31.8016C18.9827 32.0438 21.4809 32.18 23.9803 32.2083V40.012C21.78 39.9834 19.5812 39.8575 17.3923 39.6339C16.8789 36.9072 16.6042 34.2739 16.4948 31.8016ZM16.9106 21.6301C16.9209 21.5473 16.9315 21.4653 16.9422 21.3833C19.2802 21.632 21.6297 21.7724 23.9803 21.8025V30.2441C21.4626 30.2155 18.9461 30.0766 16.4402 29.8275C16.4074 26.7437 16.6176 23.9616 16.9106 21.6301ZM23.2231 9.73549C23.4753 9.71298 23.7278 9.69505 23.9803 9.68208V19.8399C21.7243 19.8105 19.4695 19.6785 17.2253 19.4439C17.9825 14.7774 19.0632 11.4964 19.4221 10.4809C20.652 10.1074 21.9246 9.85489 23.2231 9.73549ZM26.3134 9.70459C26.4378 9.71298 26.5614 9.72366 26.6853 9.73473C27.9861 9.85336 29.2606 10.1059 30.4916 10.4794C30.8502 11.491 31.9305 14.7652 32.6889 19.4439C30.4447 19.6785 28.1898 19.8105 25.9335 19.8399V9.68246C26.0605 9.68895 26.1871 9.69543 26.3134 9.70459ZM25.9335 40.012V32.2083C28.4332 32.18 30.9315 32.0438 33.4194 31.8016C33.3099 34.2747 33.0353 36.9076 32.5218 39.6339C30.3329 39.8575 28.1338 39.9834 25.9335 40.012ZM32.996 21.5694C33.2932 23.9166 33.5072 26.72 33.4736 29.8275C30.9681 30.0766 28.4515 30.2155 25.9335 30.2441V21.8025C28.2845 21.7724 30.6339 21.6316 32.972 21.3833C32.98 21.4451 32.988 21.5069 32.996 21.5694ZM40.8726 18.1202C38.8092 18.5749 36.726 18.9404 34.631 19.2154C34.0763 15.7536 33.3534 13.0428 32.8384 11.3617C36.0603 12.8189 38.8607 15.1497 40.8726 18.1202ZM24.9348 6.12411C26.1093 6.12411 27.1194 6.84128 27.5505 7.86095C26.194 7.69539 24.8226 7.66068 23.4592 7.75604C23.0774 7.78275 22.6959 7.81937 22.3164 7.86667C22.7455 6.84395 23.7576 6.12411 24.9348 6.12411ZM17.075 11.364C16.56 13.0451 15.8375 15.7551 15.2832 19.2154C13.1882 18.9404 11.1053 18.5749 9.04198 18.1202C11.0535 15.152 13.8546 12.8216 17.075 11.364ZM7.60956 20.6223C7.7282 20.3724 7.85294 20.1263 7.98149 19.8833C10.3004 20.4159 12.6442 20.8405 15.0028 21.1525C14.9952 21.2097 14.9879 21.2666 14.9807 21.3238C14.629 24.0982 14.4619 26.8711 14.4779 29.6093C11.554 29.2503 8.64906 28.7403 5.77812 28.0792C5.87959 25.4765 6.49338 22.971 7.60956 20.6223ZM9.64928 40.4194C11.6707 40.8356 13.7093 41.1694 15.7578 41.4196C16.1217 43.0954 16.5615 44.7422 17.0776 46.3543C14.1319 45.023 11.5803 42.9684 9.64928 40.4194ZM32.8365 46.3543C33.3527 44.7422 33.7925 43.0954 34.1564 41.4196C36.2049 41.1694 38.2435 40.8356 40.2649 40.4194C38.3339 42.9684 35.7822 45.023 32.8365 46.3543Z" fill="black"/>
<path d="M43.9941 23.0863C43.6534 23.3094 43.4909 23.7424 43.5893 24.1353C43.687 24.5248 44.0254 24.8227 44.4244 24.8681C44.8306 24.9143 45.23 24.6961 45.4112 24.3299C45.5894 23.969 45.523 23.5246 45.2487 23.2305C44.9268 22.8856 44.3855 22.8257 43.9941 23.0863Z" fill="black"/>
</g>
<defs>
<clipPath id="clip0">
<rect width="50" height="50" fill="white"/>
</clipPath>
</defs>
</svg>
